packages/kaspersky-hexa-ui-icons/src/iconsSVGs/16/MiniProfile.svg

<svg width="16" height="16" viewBox="0 0 16 16" fill="none" xmlns="http://www.w3.org/2000/svg">
<path fill-rule="evenodd" clip-rule="evenodd" d="M5.66665 8.68262C6.57776 8.68268 7.31687 9.42193 7.31704 10.333V12.333C7.31704 13.2442 6.57787 13.9833 5.66665 13.9834H3.66665C2.75538 13.9834 2.01626 13.2443 2.01626 12.333V10.333C2.01644 9.42189 2.75549 8.68262 3.66665 8.68262H5.66665ZM3.66665 9.9834C3.47346 9.9834 3.31722 10.1399 3.31704 10.333V12.333C3.31704 12.5263 3.47335 12.6826 3.66665 12.6826H5.66665C5.8599 12.6825 6.01626 12.5263 6.01626 12.333V10.333C6.01609 10.1399 5.85979 9.98347 5.66665 9.9834H3.66665Z" fill="black"/>
<path fill-rule="evenodd" clip-rule="evenodd" d="M12.3336 8.68262C13.2446 8.68286 13.9839 9.42204 13.984 10.333V12.333C13.984 13.2441 13.2447 13.9832 12.3336 13.9834H10.3336C9.42238 13.9834 8.68326 13.2443 8.68326 12.333V10.333C8.68343 9.42189 9.42249 8.68262 10.3336 8.68262H12.3336ZM10.3336 9.9834C10.1405 9.9834 9.98421 10.1399 9.98404 10.333V12.333C9.98404 12.5263 10.1403 12.6826 10.3336 12.6826H12.3336C12.5267 12.6824 12.6833 12.5262 12.6833 12.333V10.333C12.6831 10.14 12.5266 9.98364 12.3336 9.9834H10.3336Z" fill="black"/>
<path fill-rule="evenodd" clip-rule="evenodd" d="M12.3336 2.0166C13.2447 2.01684 13.984 2.75587 13.984 3.66699V5.66699C13.9839 6.57796 13.2446 7.31714 12.3336 7.31738H10.3336C9.42248 7.31738 8.68343 6.57811 8.68326 5.66699V3.66699C8.68326 2.75572 9.42238 2.0166 10.3336 2.0166H12.3336ZM10.3336 3.31738C10.1403 3.31738 9.98404 3.47369 9.98404 3.66699V5.66699C9.98421 5.86014 10.1405 6.0166 10.3336 6.0166H12.3336C12.5266 6.01636 12.6831 5.85999 12.6833 5.66699V3.66699C12.6833 3.47384 12.5267 3.31762 12.3336 3.31738H10.3336Z" fill="black"/>
<path d="M4.01236 4.80762C4.29757 4.29425 5.03566 4.29433 5.32095 4.80762L5.49771 5.125C5.59423 5.29873 5.7146 5.45908 5.85513 5.59961L6.08072 5.82422C6.60114 6.3447 6.13619 7.22549 5.41275 7.08984L5.06118 7.02344C4.80083 6.97462 4.53346 6.97468 4.2731 7.02344L3.92056 7.08984C3.19711 7.22547 2.73309 6.34469 3.25357 5.82422L3.47818 5.59961C3.61872 5.45907 3.73908 5.29874 3.8356 5.125L4.01236 4.80762Z" fill="black"/>
<path d="M2.02408 3.76074C2.37472 3.5583 2.85893 3.73959 3.10513 4.16602C3.35119 4.5924 3.26627 5.10227 2.91568 5.30469C2.56506 5.50712 2.08084 5.32578 1.83462 4.89941C1.58846 4.47305 1.67355 3.96325 2.02408 3.76074Z" fill="black"/>
<path d="M6.22818 4.16602C6.47438 3.73959 6.95859 3.5583 7.30923 3.76074C7.65963 3.9633 7.74384 4.4731 7.49771 4.89941C7.25146 5.32548 6.76815 5.50694 6.41763 5.30469C6.06701 5.10226 5.98206 4.59242 6.22818 4.16602Z" fill="black"/>
<path d="M3.56118 2.24316C3.9405 2.15559 4.34206 2.49143 4.45767 2.99219C4.57301 3.49269 4.3592 3.96898 3.98013 4.05664C3.60082 4.14421 3.19926 3.80936 3.08365 3.30859C2.96819 2.80796 3.18198 2.33076 3.56118 2.24316Z" fill="black"/>
<path d="M4.87564 2.99219C4.99123 2.49152 5.39287 2.15577 5.77212 2.24316C6.15138 2.33072 6.36516 2.80791 6.24966 3.30859C6.13405 3.80936 5.73249 4.14421 5.35318 4.05664C4.9743 3.96882 4.76036 3.49254 4.87564 2.99219Z" fill="black"/>
</svg>

<svg xmlns="http://www.w3.org/2000/svg" width="16" height="16" fill="none" viewBox="0 0 16 16"><path fill="#000" fill-rule="evenodd" d="M12.3338 2.0166c.911.0002 1.6503.7393 1.6503 1.6504v2c-.0001.911-.7394 1.6501-1.6503 1.6504h-2c-.9112 0-1.6502-.7393-1.6504-1.6504v-2c0-.9113.739-1.6504 1.6504-1.6504zm-8.7725.2266c.3793-.0876.7809.2482.8965.749.1153.5005-.0985.9768-.4775 1.0644-.3794.0876-.781-.2472-.8965-.748-.1155-.5006.0983-.9778.4775-1.0654m1.3145.749c.1155-.5007.5172-.8364.8964-.749.3793.0875.593.5647.4776 1.0654-.1156.5008-.5172.8356-.8965.748-.3789-.0878-.5928-.564-.4775-1.0644m5.458.3252a.3494.3494 0 0 0-.3497.3496v2a.3496.3496 0 0 0 .3497.3496h2a.35.35 0 0 0 .3496-.3496v-2a.3497.3497 0 0 0-.3496-.3496zm-8.3096.4433c.3506-.2024.8348-.0211 1.081.4053s.1612.9363-.1894 1.1387-.8348.021-1.081-.4053-.1611-.9362.1894-1.1387m4.204.4053c.2463-.4264.7305-.6077 1.0812-.4053.3503.2026.4346.7124.1884 1.1387-.2462.426-.7295.6075-1.08.4053-.3507-.2024-.4356-.7123-.1895-1.1387m-.9071.6416c-.2853-.5133-1.0234-.5134-1.3086 0l-.1768.3174a2.15 2.15 0 0 1-.3574.4746l-.2246.2246c-.5205.5205-.0565 1.4013.667 1.2656l.3525-.0664a2.14 2.14 0 0 1 .7881 0l.3516.0664c.7234.1357 1.1884-.7451.668-1.2656l-.2256-.2246a2.15 2.15 0 0 1-.3575-.4746zm7.0127 3.875c.9109.0003 1.6502.7394 1.6503 1.6504v2c0 .9111-.7393 1.6502-1.6503 1.6504h-2c-.9113 0-1.6504-.7391-1.6504-1.6504v-2c.0001-.9111.7392-1.6504 1.6504-1.6504zM7.3172 10.333c-.0002-.911-.7393-1.6503-1.6504-1.6504h-2c-.9112 0-1.6502.7393-1.6504 1.6504v2c0 .9113.7391 1.6504 1.6504 1.6504h2c.9112-.0001 1.6504-.7392 1.6504-1.6504zm3.0166-.3496a.3497.3497 0 0 0-.3497.3496v2c0 .1933.1564.3496.3497.3496h2a.3496.3496 0 0 0 .3496-.3496v-2a.35.35 0 0 0-.3496-.3496zm-7.0166.3496a.3496.3496 0 0 1 .3496-.3496h2a.3497.3497 0 0 1 .3496.3496v2a.3494.3494 0 0 1-.3496.3496h-2a.3493.3493 0 0 1-.3496-.3496z"/></svg>
